X: 5863
T: Callow Lake
R: waltz
M: 3/4
K: Adorian
|:Je6-|e2 cB A2-|A6-|A2 J(3B{c}BA G2-|G2 JA4|z E2-E3-|EGFE JE2-|E6-|E2z4|z6|
Je2 c d3-|{f}d6-|{f}d6-|d cB A2 c|B A JA4-|A6-|A4z2|z6|
Je6-|!>!e(3dcBA3-|A4zJB|{c}BAG4|JA4 E2-|E2 G2F E-|EJE3-E2|E2z4|z6|
z3 Je2c|d3{f}d {f}d2-|d6-|d6|(3cBAJA4|(3cBA JA4-|A6-|A3-A2{c/}A|
^G2 A2 JB2-|B2 E4-|E6|z2 Jc4-|c6-|c3z JB2-|B2B{c}B A2-|A6-|A3-A2z|
z2{c}A^GA2|JB2 d4|{f}d2 {f}dcz2|z2cBAJA-|A3AA2-|A6-|A6:|

